svg/fluentui-system-icons/ic_fluent_lightbulb_filament_16_regular.svg

<svg width="16" height="16" viewBox="0 0 16 16" fill="none" xmlns="http://www.w3.org/2000/svg">
<path d="M7.5 4.49869C7.5 4.22255 7.72386 3.99869 8 3.99869C8.27614 3.99869 8.5 4.22255 8.5 4.49869V5.49868C8.5 5.77482 8.27614 5.99868 8 5.99868C7.72386 5.99868 7.5 5.77482 7.5 5.49868V4.49869ZM10.5777 5.29409C10.3825 5.09883 10.0659 5.09883 9.87061 5.29409L9.16352 6.00119C8.96825 6.19645 8.96825 6.51303 9.16352 6.7083C9.35878 6.90356 9.67536 6.90356 9.87062 6.7083L10.5777 6.0012C10.773 5.80594 10.773 5.48935 10.5777 5.29409ZM6.10082 5.29409C5.90556 5.09883 5.58898 5.09883 5.39371 5.29409C5.19845 5.48935 5.19845 5.80594 5.39371 6.0012L6.10081 6.7083C6.29608 6.90356 6.61266 6.90356 6.80792 6.7083C7.00318 6.51303 7.00318 6.19645 6.80792 6.00119L6.10082 5.29409ZM7.99806 2.00098C6.76915 2.00098 5.64713 2.48205 4.83044 3.3108C4.03189 4.12114 3.53982 5.24847 3.49914 6.54365L3.49854 6.56295L3.49942 6.58224C3.55611 7.81923 4.15415 8.9072 5.2364 10.0365L5.93751 12.9781L5.94478 12.9996C6.04506 13.2972 6.23732 13.5442 6.47926 13.7173C6.73012 13.8967 7.03709 13.9989 7.36154 13.9989L7.36295 13.9989L8.74641 13.9949L8.76718 13.9932C9.08182 13.966 9.37411 13.8427 9.60715 13.6475C9.83822 13.4539 10.0129 13.1874 10.0875 12.8744L10.8834 9.82466C11.9173 8.83025 12.5012 7.68021 12.5012 6.38719C12.5012 5.17269 11.9938 4.07603 11.1819 3.28536C10.3652 2.48999 9.23825 2.00098 7.99806 2.00098ZM5.54271 4.01271C6.17059 3.37556 7.03566 3.00098 7.99806 3.00098C8.97163 3.00098 9.84989 3.38402 10.4842 4.00178C11.1144 4.61541 11.5012 5.45815 11.5012 6.38719C11.5012 7.37847 11.0482 8.31289 10.0966 9.19217L9.98904 9.29151L9.54309 10.9999H8.50128V7.50012C8.50128 7.22398 8.27742 7.00012 8.00128 7.00012C7.72514 7.00012 7.50128 7.22398 7.50128 7.50012V10.9999H6.49404L6.14509 9.53587L6.04777 9.43671C5.0014 8.37062 4.54729 7.48037 4.4993 6.55554C4.53672 5.50823 4.93324 4.63117 5.54271 4.01271ZM6.73239 11.9999H9.28205L9.11822 12.6275L9.11523 12.6404C9.09344 12.7339 9.04093 12.8173 8.96497 12.8809C8.89244 12.9417 8.80038 12.9829 8.69846 12.9951L7.36093 12.9989C7.24772 12.9987 7.14394 12.9632 7.06099 12.9039C6.98586 12.8502 6.9299 12.7785 6.89869 12.6976L6.73239 11.9999Z" fill="#212121"/>
</svg>

<svg xmlns="http://www.w3.org/2000/svg" width="16" height="16"><path d="M7.5 4.499a.5.5 0 0 1 1 0v1a.5.5 0 0 1-1 0v-1Zm3.078.795a.5.5 0 0 0-.707 0l-.707.707a.5.5 0 1 0 .707.707l.707-.707a.5.5 0 0 0 0-.707Zm-4.477 0a.5.5 0 0 0-.707.707l.707.707a.5.5 0 0 0 .707-.707L6.1 5.294Zm1.897-3.293c-1.229 0-2.35.481-3.168 1.31-.798.81-1.29 1.937-1.33 3.233l-.001.019v.02c.057 1.236.655 2.324 1.737 3.454l.702 2.941.007.022c.1.297.292.544.534.717.251.18.558.282.883.282l1.384-.004.021-.002a1.51 1.51 0 0 0 .84-.345c.231-.194.406-.46.48-.774l.796-3.05c1.034-.994 1.618-2.144 1.618-3.437a4.318 4.318 0 0 0-1.32-3.102 4.55 4.55 0 0 0-3.183-1.284ZM5.543 4.013A3.414 3.414 0 0 1 7.998 3a3.55 3.55 0 0 1 2.486 1 3.318 3.318 0 0 1 1.017 2.386c0 .991-.453 1.926-1.404 2.805l-.108.1L9.543 11H8.501V7.5a.5.5 0 0 0-1 0V11H6.494l-.349-1.464-.097-.1C5 8.372 4.548 7.48 4.499 6.557c.038-1.048.434-1.925 1.044-2.543ZM6.733 12h2.55l-.165.627-.003.013a.445.445 0 0 1-.15.24.509.509 0 0 1-.267.115L7.361 13a.516.516 0 0 1-.3-.095.457.457 0 0 1-.162-.206L6.732 12Z"/></svg>
